X: 33984
T: Reel 97
R: reel
M: 4/4
K: Gmajor
|:A2 dA F2 AF|A2 dc ~B2 AF|A2 dA FAAF|1 EFGc ~B2 AF:|2 EFGc BAAF||
|:ABde f2 fe|defe dBBB|ABde faaf|1 e2 fe dBBB:|2 eafe dBBB||

